X: 10961
T: Drummore Lasses
R: slip jig
M: 9/8
K: Amixolydian
|:A|e2 e- ecA cBA|e2 e- ecA dcB|e2 e- ecA- ABc|f2 g- gec d2:|
|:G|d2 g- gaf ece|f/g/af ged- dc/B/A|d3 fa/g/f e2 g|f2 a gec d2:|

